X:1
T:Nobody Cares
T:Nobody Cares
T:Bentley DeForest Ackley
T:Sherrard Beatty, 1915
T:Public Domain Courtesy of the Cyber Hymnal™
T:Public Domain Courtesy of the Cyber Hymnal™
C:Bentley DeForest Ackley
Z:Public Domain
Z:Courtesy of the Cyber Hymnal™
%%score ( 1 2 ) ( 3 4 )
L:1/8
Q:1/4=112
M:6/4
K:Ab
V:1 treble 
V:2 treble 
V:3 bass 
V:4 bass 
V:1
 A2 F2 E2 A4 C>C | E2 [Ec]2 [DB]2 [CA]4 [Ec]2 | c2 G2 B2 A2 F2 G2 | A2 B2 =B2 [=Ec]4 [Ec]2 | %4
w: 1.~No- bo- dy cares, said an|out- cast one day; My|life has been ru- ined, I|drift- ed a- way; En-|
w: 2.~No- bo- dy cares, said an-|o- ther in sin; Since|ev- ery- thing’s gone, who will|now take me in? My|
w: 3.~No- bo- dy cares, said a|man in his cell; I’m|reap- ing the har- vest I’ve|so- wn so well; They|
w: 4.~Come, bur- dened heart, with thy|sin- la- den soul; The|Sav- ior is wait- ing to|ma- ke thee whole; Sweet|
 c2 F2 =A2 [Ec]2 [Fd]2 [Ec]2 | B2 =A2 B2 [DF]4 [FG]2 | [FA]2 [CG]2 [CF]2 [Fc]6 | %7
w: trapped by the e- vil one|in- to his For- sak-|en by all— no-|
w: fa- ther’s for- got- ten me,|mo- ther is And no-|bo- dy cares— I’m|
w: say I’m a wre- ck, come,|look now and There’s no-|bo- dy cares for|
w: rest He has prom- ised— His|prom- ise is For God|in His love car-|
"^riten." z2 A2 [CGB]2 [CFA]6 ||"^Refrain" G2 F2 E2 [Ed]4 [DG]2 | [CA]2 [B,G]2 [CA]2 [Ec]4 [CE]2 | %10
w: bo- dy cares!|||
w: left a- lone.|No- bo- dy cares? That|may have been true; But|
w: me, for me.|||
w: eth for you.|||
 =D2 F2 A2 c2 B2 A2 | G2 A2 =A2 [EB]4 [Ed]2 | [Ec]2 [=D=B]2 [Ec]2 [CA]2 [_DG]2 [EA]2 | %13
w: |||
w: wan- der- ing one, we are|pray- ing for you; O|* list to the sto- ry|
w: |||
w: |||
 B2 A2 F2 [CE]6 | F2 G2 [=B,F]2 [CE]2 [Ed]2 [Ec]2 | [Ec]4 [DB]2 [CA]6 |] %16
w: |||
w: of love ev- er|new; Je- sus, my Sav- ior,|cares for you.|
w: |||
w: |||
V:2
 A2 F2 E2 A4 C>C | E2 x10 | =E6 F6 | F6 x6 | E6 x6 | D6- x6 | x12 | [Cc]4 x8 || D6 x6 | x12 | %10
 B,6 =D6 | E6- x6 | x12 | D6 x6 | D4 x8 | x12 |] %16
V:3
 A,2 F,2 E,2 A,4 C,>D, | z2 A,2 [E,G,]2 [A,,A,]4 [A,,A,]2 | G,2 C4 C2 A,2 B,2 | %3
 [F,C]2 E2 F,2 [C,G,]4 [C,G,]2 | [F,=A,]6- [F,A,]4 F,2 | [B,,F,]6 [B,,B,]4 [B,,D]2 | %6
 C2 B,2 A,2 A,6 | [C,A,]4 C,2 [F,,F,]6 || B,2 A,2 G,2 [E,G,]4 [E,B,]2 | %9
 [A,,A,]4 [A,,E,]2 [A,,A,]6 | A,6 F,4 B,2 | B,2 F,2 ^F,2 [E,G,]4 [E,G,]2 | %12
 A,6 [A,,E,]2 [B,,E,]2 [C,A,]2 | F,4 A,2 [A,,A,]6 | [D,A,]4 [=D,A,]2 [E,A,]2 [G,B,]2 A,2 | %15
 A,2 F,2 [E,G,]2 [A,,E,A,]6 |] %16
V:4
 A,2 F,2 E,2 A,4 C,>D, | E,4- x8 | C,6 F,6 | x2 D,4 x6 | x12 | x12 | C,12 | x4 C,2 x6 || E,6- x6 | %9
 x12 | B,,12 | E,6- x6 | A,6 x6 | D,6 x6 | x10 A,2 | E,4 x8 |] %16

